X: 130461
T: Man from Bundoran
S: 4 Men and a Dog: Barking Mad
Z: B.Black
R: reel
M: 4/4
L: 1/8
K: Amix
BEEE BEEE | BEEE BcdB | cAAA EAAA | ceef e2 dc |
BEEE BEEE | BEEE BcdB | cAAA EAAA | ceef e2 cA ||
defe d3 A | defe dcBc | d2 dc dfaf | ecAc egfe |
defe d3 A | defe dcBc | d2 dc dfaf | ecAc e2 dc ||
